apps/web/public/icons/global.svg

<?xml version="1.0" encoding="UTF-8"?>
<!-- Uploaded to: SVG Repo, www.svgrepo.com, Transformed by: SVG Repo Mixer Tools -->
<svg xmlns="http://www.w3.org/2000/svg" width="800px" height="800px" viewBox="0 0 24 24" id="meteor-icon-kit__solid-globe" fill="none">
  <g id="SVGRepo_bgCarrier" stroke-width="0"></g>
  <g id="SVGRepo_tracerCarrier" stroke-linecap="round" stroke-linejoin="round"></g>
  <g id="SVGRepo_iconCarrier">
    <path d="M8.09778 0.648843C4.98404 1.71902 2.44928 4.0343 1.08808 7.0001H4.61312C5.30541 4.30247 6.541 2.06507 8.09778 0.648843Z" fill="#FFAB0E"></path>
    <path d="M6.54404 7.0001C7.35866 3.4503 9.0139 0.832426 11 0.166017V7.0001H6.54404Z" fill="#FFAB0E"></path>
    <path d="M4.21407 9.0001H0.378052C0.131259 9.95896 0 10.9642 0 12.0001C0 13.4026 0.240617 14.749 0.682823 16.0001H4.38585C4.13534 14.74 4 13.3957 4 12.0001C4 10.9676 4.07408 9.96314 4.21407 9.0001Z" fill="#FFAB0E"></path>
    <path d="M6.34141 16.0001C6.12031 14.749 6 13.4026 6 12.0001C6 10.9642 6.06563 9.95896 6.18903 9.0001H11L11 16.0001H6.34141Z" fill="#FFAB0E"></path>
    <path d="M4.90118 18.0001H1.60539C3.04211 20.4838 5.34342 22.4047 8.09779 23.3514C6.73775 22.1141 5.62285 20.2502 4.90118 18.0001Z" fill="#FFAB0E"></path>
    <path d="M11 23.8342C9.20542 23.232 7.68096 21.0366 6.80269 18.0001H11V23.8342Z" fill="#FFAB0E"></path>
    <path d="M15.9022 23.3514C18.6566 22.4047 20.9579 20.4838 22.3946 18.0001H19.0988C18.3771 20.2502 17.2622 22.1141 15.9022 23.3514Z" fill="#FFAB0E"></path>
    <path d="M17.1973 18.0001C16.319 21.0366 14.7946 23.232 13 23.8342V18.0001H17.1973Z" fill="#FFAB0E"></path>
    <path d="M19.6142 16.0001H23.3172C23.7594 14.749 24 13.4026 24 12.0001C24 10.9642 23.8687 9.95896 23.6219 9.0001H19.7859C19.9259 9.96314 20 10.9676 20 12.0001C20 13.3957 19.8647 14.74 19.6142 16.0001Z" fill="#FFAB0E"></path>
    <path d="M17.811 9.0001C17.9344 9.95896 18 10.9642 18 12.0001C18 13.4026 17.8797 14.749 17.6586 16.0001H13L13 9.0001H17.811Z" fill="#FFAB0E"></path>
    <path d="M17.456 7.0001H13V0.166016C14.9861 0.832423 16.6413 3.45029 17.456 7.0001Z" fill="#FFAB0E"></path>
    <path d="M19.3869 7.0001C18.6946 4.30247 17.459 2.06507 15.9022 0.648845C19.016 1.71903 21.5507 4.0343 22.9119 7.0001H19.3869Z" fill="#FFAB0E"></path>
  </g>
</svg>

<svg xmlns="http://www.w3.org/2000/svg" width="800" height="800" fill="none" viewBox="0 0 24 24"><path fill="#ffab0e" d="M8.098.649A12.04 12.04 0 0 0 1.088 7h3.525C5.305 4.302 6.541 2.065 8.098.65M6.544 7C7.359 3.45 9.014.832 11 .166V7zm-2.33 2H.378A12 12 0 0 0 0 12c0 1.403.24 2.749.683 4h3.703A20.6 20.6 0 0 1 4 12c0-1.032.074-2.037.214-3m2.127 7A23 23 0 0 1 6 12c0-1.036.066-2.041.189-3H11v7zm-1.44 2H1.605a12.04 12.04 0 0 0 6.493 5.351c-1.36-1.237-2.475-3.1-3.197-5.35M11 23.834C9.205 23.232 7.681 21.037 6.803 18H11zm4.902-.483a12.04 12.04 0 0 0 6.493-5.35h-3.296c-.722 2.25-1.837 4.113-3.197 5.35M17.197 18c-.878 3.037-2.402 5.232-4.197 5.834V18zm2.417-2h3.703A12 12 0 0 0 24 12c0-1.036-.131-2.041-.378-3h-3.836c.14.963.214 1.968.214 3 0 1.396-.135 2.74-.386 4m-1.803-7c.123.959.189 1.964.189 3 0 1.403-.12 2.749-.341 4H13V9zm-.355-2H13V.166C14.986.832 16.641 3.45 17.456 7m1.931 0c-.692-2.698-1.928-4.935-3.485-6.351A12.04 12.04 0 0 1 22.912 7z"/></svg>
